X: 17905
T: Hounds Way, The
R: reel
M: 4/4
K: Fmajor
AGE|:F3 F FGAc|dgfd cAFA|~G2 GF G3 A|BA B/c/d cAGc
AF ~F2 FGAc|dgfd cAFA|~B3 B BAGB|1 Ac ~c2 dcAG:|2 AF ~F2 Fcag||
|:fc ~c2 AcFc|AF ~F2 FAdc|AB ~B2 Bcdc|Bc ~c2 cAag|
fc ~c2 AcFc|AF ~F2 FAdc|AB ~B2 BAGB|1 AF ~ F2 Fcag:|2 Ac ~c2 dcAG||

